X:73
T:2-Part Invention #13 in A minor. B.W. III
C:J.S. Bach
N:
L:1/8
Q:1/4=85
M:4/4
K:C
z/E/A/c/ B/E/B/d/ ce ^Ge | A/E/A/c/ B/E/B/d/ cA3 | z/e/c/e/ A/c/E/G/ FA df | z/d/B/d/ G/B/D/F/ EG ce | 
z/c/A/c/ Fd3/2B/G/B/ Ec | z/A/F/A/ DB c4 | z/G/c/e/ d/G/d/f/ eg Bg | c/G/c/e/ d/G/d/f/ ec ge | 
c'/a/e/a/ c/e/A/c/ d^f ac' | b/g/d/g/ B/d/G/B/ ce gb | a/^f/^d/f/ B/d/^F/A/ Gg3/2e/c/e/ | 
A^f3/2d/B/d/ Ge3/2c/A/c/ | ^F/g/^f/e/ ^d/f/B/d/ e4 | z/g/_b/g/ e/g/^c/e/ g/e/c/e/ A2 | 
z/f/^g/f/ d/f/B/d/ f/d/B/d/ G2 | z/e/g/e/ c/e/A/c/ ^d/c/A/c/ ^F2 | z/d/f/d/ B/d/^G/B/ d/B/G/B/ E2 | 
z/E/A/c/ B/E/B/d/ cA ^GE | A/c/e/c/ A/c/^F/A/ c/A/F/A/ ^D/c/B/A/ | ^G/B/d/B/ G/B/D/F/ =G/F/D/F/ B,/F/E/D/ | 
C/E/A/E/ C/E/A,/C/ ^D/C/A,/C/ ^F/C/B,/A,/ | ^G,B ^GE3/2E/A/c/ B/E/B/d/ | c/A/c/e/ d/B/d/f/ e/c/e/g/ f/e/d/c/ | 
B/c/d/e/ f/d/^g/d/ b/d/c/a/ f/d/B/d/ | ^G/B/c/A/ E/A/B/G/ A/E/C/E/ A,2 | z8 | 
z8 | 
 

